X: 2
A:Adam de la Halle
T:Li dous regars de ma Dame
N: (written out)
N: The Bb in the second line of the top part is editoral.
M:3/4
L:1/4
Q:1/4=120
K:F
%
V:1 clef=treble
V:2 clef=treble-8 middle=B,
V:3 clef=treble-8 middle=B,
%%MIDI program 1       70 bassoon
%%MIDI program 2       71 clarinet
%%MIDI program 3       72 piccolo
%
[V:1] [K:C](c/B/) (A/G/F)  |(F/G/)  (A/B/c)   | B  (cd)    | e  (f/e/d)   | f2  z|| 
[V:2] [K:F] F     (E/D/C)  |(C/B,/) (A,/G,/F,)| E, (F,G,)  | A, (A,B,)    | C2  z|| 
[V:3] [K:F] F,    (A,/B,/C)|(C/D/)  (D/E/F)   | E  (D/C/B,)| A, (B,/A,/G,)| F,2 z||
